tools/download-figma-icons/icons/solid/wallbe-pro.svg

<svg width="24" height="24" viewBox="0 0 24 24" fill="none" xmlns="http://www.w3.org/2000/svg">
<path fill-rule="evenodd" clip-rule="evenodd" d="M14.1675 17.625C14.9325 18.795 16.2225 19.5 17.625 19.5C19.8975 19.5 21.75 17.6475 21.75 15.375C21.75 13.7025 20.7 12.2775 18.9675 11.655C16.8024 10.9967 16.1425 8.59787 16.1042 8.45867C16.1033 8.45513 16.1027 8.45306 16.1025 8.4525L16.0793 8.37C15.375 6.4425 13.665 5.25 11.625 5.25C10.3425 5.25 9.1275 5.745 8.2275 6.63C7.2543 7.53582 6.23702 7.51508 5.50158 7.50008L5.4975 7.5H5.25C3.345 7.5 2.25 8.595 2.25 10.5C2.25 11.28 2.88 12.75 5.25 12.75C7.0275 12.75 7.59 13.2 8.235 13.725C8.8725 14.2425 9.585 14.82 11.1675 14.9925C12.7083 15.1645 12.9288 15.538 13.7558 16.9386L13.7625 16.95C13.7844 16.987 13.8066 17.0245 13.8291 17.0625C13.9296 17.2325 14.036 17.4125 14.1525 17.6025L14.1675 17.625ZM3 0H21C22.6575 0 24 1.3425 24 3V21C24 22.6575 22.6575 24 21 24H3C1.3425 24 0 22.6575 0 21V3C0 1.3425 1.3425 0 3 0ZM16.5 15.375C16.5 15.9975 17.0025 16.5 17.625 16.5C18.2475 16.5 18.75 15.9975 18.75 15.375C18.75 14.7525 18.2475 14.25 17.625 14.25C17.0025 14.25 16.5 14.7525 16.5 15.375ZM9.75 10.125C9.75 11.16 10.59 12 11.625 12C12.66 12 13.5 11.16 13.5 10.125C13.5 9.09 12.66 8.25 11.625 8.25C10.59 8.25 9.75 9.09 9.75 10.125ZM14.655 8.85C14.775 9.285 15.645 12.21 18.495 13.08C19.5975 13.4775 20.25 14.3325 20.25 15.375C20.25 16.8225 19.0725 18 17.625 18C16.74 18 15.915 17.5575 15.4275 16.815C15.3569 16.6974 15.2905 16.5839 15.227 16.4755C15.1691 16.3766 15.1137 16.282 15.06 16.1925L15.0589 16.1906C14.1596 14.6692 13.6191 13.7549 11.3325 13.5075C10.1925 13.38 9.7425 13.02 9.18 12.5625C8.4225 11.9475 7.56 11.25 5.25 11.25C3.87 11.25 3.7575 10.605 3.75 10.5C3.75 9.42 4.17075 9 5.25 9H5.4675L5.47125 9.00007C6.29715 9.01509 7.83142 9.04299 9.2625 7.7175C9.9 7.095 10.7332 6.75 11.625 6.75C13.035 6.75 14.16 7.53 14.655 8.85Z" fill="black"/>
</svg>

<svg xmlns="http://www.w3.org/2000/svg" width="24" height="24" fill="none" viewBox="0 0 24 24"><path fill="currentColor" fill-rule="evenodd" d="M14.168 17.625a4.12 4.12 0 0 0 3.457 1.875 4.13 4.13 0 0 0 4.125-4.125c0-1.672-1.05-3.097-2.782-3.72-2.166-.658-2.826-3.057-2.864-3.196l-.002-.006-.023-.083c-.704-1.927-2.414-3.12-4.454-3.12a4.83 4.83 0 0 0-3.398 1.38c-.973.906-1.99.885-2.725.87H5.25c-1.905 0-3 1.095-3 3 0 .78.63 2.25 3 2.25 1.777 0 2.34.45 2.985.975.638.518 1.35 1.095 2.933 1.268 1.54.172 1.76.545 2.588 1.946l.006.011.067.113q.15.255.323.54zM3 0h18a3 3 0 0 1 3 3v18a3 3 0 0 1-3 3H3a3 3 0 0 1-3-3V3a3 3 0 0 1 3-3m13.5 15.375c0 .623.503 1.125 1.125 1.125s1.125-.502 1.125-1.125-.503-1.125-1.125-1.125-1.125.502-1.125 1.125m-6.75-5.25a1.876 1.876 0 1 0 3.751-.001 1.876 1.876 0 0 0-3.751.001m4.905-1.275c.12.435.99 3.36 3.84 4.23 1.102.397 1.755 1.252 1.755 2.295a2.628 2.628 0 0 1-4.822 1.44q-.107-.177-.201-.34l-.167-.283-.001-.001c-.9-1.522-1.44-2.436-3.726-2.683-1.14-.128-1.59-.488-2.153-.945-.758-.616-1.62-1.313-3.93-1.313-1.38 0-1.493-.645-1.5-.75 0-1.08.42-1.5 1.5-1.5h.221c.826.015 2.36.043 3.791-1.282a3.36 3.36 0 0 1 2.363-.968c1.41 0 2.535.78 3.03 2.1" clip-rule="evenodd"/></svg>
